X: 36383
T: Sean Reid's
R: reel
M: 4/4
K: Gmajor
|:DG G2 BG (3Bcd|cAFA d2 BG|DG G2 BG (3Bcd|cAFA AGG2|
DG G2 BG (3Bcd|cAFA d2 (3def|~g3 g gfde|fdcA AGG2:|
|:~g3 a gfde|~f3 g fdcA|dggf gfde|fdcA AGG2|
~g3 a gfde|~f3 g fdcA|~g3 a bgag|fdcA AGG2:|

